img/svg/profile-security.svg

<svg width="24" height="24" viewBox="0 0 24 24" fill="none" xmlns="http://www.w3.org/2000/svg">
<path d="M9.8 11.5751L11.6 13.3751L15.2 9.77508M5 6.17508L10.59 3.38006C11.6035 2.87331 12.7965 2.87331 13.81 3.38006L19.4 6.17508C19.4 6.17508 19.4 11.4311 19.4 14.2031C19.4 16.9751 16.8376 18.8463 12.2 21.7751C7.5624 18.8463 5 16.3751 5 14.2031V6.17508Z" stroke="#F2F4F6" stroke-width="2" stroke-linecap="round" stroke-linejoin="round"/>
</svg>

<svg width="24" height="24" viewBox="0 0 24 24" fill="none" xmlns="http://www.w3.org/2000/svg"><path d="M9.8 11.575l1.8 1.8 3.6-3.6M5 6.175l5.59-2.795a3.6 3.6 0 013.22 0l5.59 2.795v8.028c0 2.772-2.562 4.643-7.2 7.572-4.638-2.929-7.2-5.4-7.2-7.572V6.175z" stroke="#F2F4F6" stroke-width="2" stroke-linecap="round" stroke-linejoin="round"/></svg>
